neoactive/svg/Atari - 7800.svg

<?xml version="1.0" encoding="UTF-8" standalone="no"?>
<svg
   xmlns:dc="http://purl.org/dc/elements/1.1/"
   xmlns:cc="http://creativecommons.org/ns#"
   xmlns:rdf="http://www.w3.org/1999/02/22-rdf-syntax-ns#"
   xmlns:svg="http://www.w3.org/2000/svg"
   xmlns="http://www.w3.org/2000/svg"
   viewBox="0 0 320 320"
   height="320"
   width="320"
   xml:space="preserve"
   version="1.1"
   id="svg2"><metadata
     id="metadata8"><rdf:RDF><cc:Work
         rdf:about=""><dc:format>image/svg+xml</dc:format><dc:type
           rdf:resource="http://purl.org/dc/dcmitype/StillImage" /></cc:Work></rdf:RDF></metadata><defs
     id="defs6"><clipPath
       id="clipPath16"
       clipPathUnits="userSpaceOnUse"><path
         id="path18"
         d="M 171.885,237.342 163.021,244 128,244 92.979,244 84.115,237.342 80,184.687 90.763,15.825 98.545,12 128,12 l 29.455,0 7.782,3.825 10.763,168.862 -4.115,52.655 z" /></clipPath><linearGradient
       id="linearGradient24"
       spreadMethod="pad"
       gradientTransform="matrix(151.31987,-151.31987,-151.31987,-151.31987,52.340065,205.56728)"
       gradientUnits="userSpaceOnUse"
       y2="0"
       x2="1"
       y1="0"
       x1="0"><stop
         id="stop26"
         offset="0"
         style="stop-opacity:1;stop-color:#e6e7e8" /><stop
         id="stop28"
         offset="1"
         style="stop-opacity:1;stop-color:#d1d3d4" /></linearGradient><clipPath
       id="clipPath60"
       clipPathUnits="userSpaceOnUse"><path
         id="path62"
         d="m 158,128 -60,0 0,60 60,0 0,-60 z" /></clipPath><linearGradient
       id="linearGradient68"
       spreadMethod="pad"
       gradientTransform="matrix(59.999973,-59.999973,-59.999973,-59.999973,98.000015,187.99997)"
       gradientUnits="userSpaceOnUse"
       y2="0"
       x2="1"
       y1="0"
       x1="0"><stop
         id="stop70"
         offset="0"
         style="stop-opacity:1;stop-color:#e6e7e8" /><stop
         id="stop72"
         offset="1"
         style="stop-opacity:1;stop-color:#d1d3d4" /></linearGradient><clipPath
       id="clipPath80"
       clipPathUnits="userSpaceOnUse"><path
         id="path82"
         d="m 128,158 30,30 -60,0 30,-30 z" /></clipPath><linearGradient
       id="linearGradient88"
       spreadMethod="pad"
       gradientTransform="matrix(-29.999989,29.999989,29.999989,29.999989,143,172.99997)"
       gradientUnits="userSpaceOnUse"
       y2="0"
       x2="1"
       y1="0"
       x1="0"><stop
         id="stop90"
         offset="0"
         style="stop-opacity:1;stop-color:#e6e7e8" /><stop
         id="stop92"
         offset="1"
         style="stop-opacity:1;stop-color:#d1d3d4" /></linearGradient><clipPath
       id="clipPath100"
       clipPathUnits="userSpaceOnUse"><path
         id="path102"
         d="m 128,158 -30,-30 60,0 -30,30 z" /></clipPath><linearGradient
       id="linearGradient108"
       spreadMethod="pad"
       gradientTransform="matrix(-29.999989,29.999989,29.999989,29.999989,143,113.00001)"
       gradientUnits="userSpaceOnUse"
       y2="0"
       x2="1"
       y1="0"
       x1="0"><stop
         id="stop110"
         offset="0"
         style="stop-opacity:1;stop-color:#e6e7e8" /><stop
         id="stop112"
         offset="1"
         style="stop-opacity:1;stop-color:#d1d3d4" /></linearGradient><clipPath
       id="clipPath120"
       clipPathUnits="userSpaceOnUse"><path
         id="path122"
         d="m 158,188 -6.324,0 L 127.984,164.28 104.026,188 98,188 98,181.74 121.712,158 98,134.26 98,128 l 6.026,0 23.958,23.72 23.692,-23.72 6.324,0 0,6.563 L 134.328,158 158,181.437 158,188 Z" /></clipPath><linearGradient
       id="linearGradient128"
       spreadMethod="pad"
       gradientTransform="matrix(-59.999954,59.999954,59.999954,59.999954,157.99994,128.00003)"
       gradientUnits="userSpaceOnUse"
       y2="0"
       x2="1"
       y1="0"
       x1="0"><stop
         id="stop130"
         offset="0"
         style="stop-opacity:1;stop-color:#e6e7e8" /><stop
         id="stop132"
         offset="1"
         style="stop-opacity:1;stop-color:#d1d3d4" /></linearGradient><clipPath
       id="clipPath140"
       clipPathUnits="userSpaceOnUse"><path
         id="path142"
         d="M 0,256 256,256 256,0 0,0 0,256 Z" /></clipPath><clipPath
       id="clipPath152"
       clipPathUnits="userSpaceOnUse"><path
         id="path154"
         d="m 114,158 c 0,-7.732 6.268,-14 14,-14 l 0,0 c 7.732,0 14,6.268 14,14 l 0,0 c 0,7.732 -6.268,14 -14,14 l 0,0 c -7.732,0 -14,-6.268 -14,-14" /></clipPath><linearGradient
       id="linearGradient160"
       spreadMethod="pad"
       gradientTransform="matrix(19.79899,-19.79899,-19.79899,-19.79899,118.1005,167.89949)"
       gradientUnits="userSpaceOnUse"
       y2="0"
       x2="1"
       y1="0"
       x1="0"><stop
         id="stop162"
         offset="0"
         style="stop-opacity:1;stop-color:#e6e7e8" /><stop
         id="stop164"
         offset="1"
         style="stop-opacity:1;stop-color:#d1d3d4" /></linearGradient></defs><g
     transform="matrix(1.25,0,0,-1.25,0,320)"
     id="g10"><g
       id="g12"><g
         clip-path="url(#clipPath16)"
         id="g14"><g
           id="g20"><g
             id="g22"><path
               id="path30"
               style="fill:url(#linearGradient24);stroke:none"
               d="M 171.885,237.342 163.021,244 128,244 92.979,244 84.115,237.342 80,184.687 90.763,15.825 98.545,12 128,12 l 29.455,0 7.782,3.825 10.763,168.862 -4.115,52.655 z" /></g></g></g></g><path
       id="path32"
       style="fill:#ffffff;fill-opacity:1;fill-rule:nonzero;stroke:none"
       d="m 158,12 -60,0 0,116 60,0 0,-116 z" /><g
       transform="translate(79.5556,233.6393)"
       id="g34"><path
         id="path36"
         style="fill:#999999;fill-opacity:1;fill-rule:nonzero;stroke:none"
         d="M 0,0 4.593,2.361 8.444,-1.574 6.222,-38.715 0.741,-45.639 -3.556,-42.807 0,0 Z" /></g><g
       transform="translate(176.4444,233.6393)"
       id="g38"><path
         id="path40"
         style="fill:#999999;fill-opacity:1;fill-rule:nonzero;stroke:none"
         d="m 0,0 -4.593,2.361 -3.851,-3.935 2.222,-37.141 5.481,-6.924 4.297,2.832 L 0,0 Z" /></g><path
       id="path42"
       style="fill:#999999;fill-opacity:1;fill-rule:nonzero;stroke:none"
       d="m 158,240 -60,0 0,4 60,0 0,-4 z" /><path
       id="path44"
       style="fill:#999999;fill-opacity:1;fill-rule:nonzero;stroke:none"
       d="m 158,232 -60,0 0,4 60,0 0,-4 z" /><path
       id="path46"
       style="fill:#999999;fill-opacity:1;fill-rule:nonzero;stroke:none"
       d="m 158,224 -60,0 0,4 60,0 0,-4 z" /><path
       id="path48"
       style="fill:#999999;fill-opacity:1;fill-rule:nonzero;stroke:none"
       d="m 158,216 -60,0 0,4 60,0 0,-4 z" /><path
       id="path50"
       style="fill:#999999;fill-opacity:1;fill-rule:nonzero;stroke:none"
       d="m 158,208 -60,0 0,4 60,0 0,-4 z" /><path
       id="path52"
       style="fill:#999999;fill-opacity:1;fill-rule:nonzero;stroke:none"
       d="m 158,200 -60,0 0,4 60,0 0,-4 z" /><path
       id="path54"
       style="fill:#999999;fill-opacity:1;fill-rule:nonzero;stroke:none"
       d="m 158,192 -60,0 0,4 60,0 0,-4 z" /><g
       id="g56"><g
         clip-path="url(#clipPath60)"
         id="g58"><g
           id="g64"><g
             id="g66"><path
               id="path74"
               style="fill:url(#linearGradient68);stroke:none"
               d="m 158,128 -60,0 0,60 60,0 0,-60 z" /></g></g></g></g><g
       id="g76"><g
         clip-path="url(#clipPath80)"
         id="g78"><g
           id="g84"><g
             id="g86"><path
               id="path94"
               style="fill:url(#linearGradient88);stroke:none"
               d="m 128,158 30,30 -60,0 30,-30 z" /></g></g></g></g><g
       id="g96"><g
         clip-path="url(#clipPath100)"
         id="g98"><g
           id="g104"><g
             id="g106"><path
               id="path114"
               style="fill:url(#linearGradient108);stroke:none"
               d="m 128,158 -30,-30 60,0 -30,30 z" /></g></g></g></g><g
       id="g116"><g
         clip-path="url(#clipPath120)"
         id="g118"><g
           id="g124"><g
             id="g126"><path
               id="path134"
               style="fill:url(#linearGradient128);stroke:none"
               d="m 158,188 -6.324,0 L 127.984,164.28 104.026,188 98,188 98,181.74 121.712,158 98,134.26 98,128 l 6.026,0 23.958,23.72 23.692,-23.72 6.324,0 0,6.563 L 134.328,158 158,181.437 158,188 Z" /></g></g></g></g><g
       id="g136"><g
         clip-path="url(#clipPath140)"
         id="g138"><g
           transform="translate(148,158)"
           id="g144"><path
             id="path146"
             style="fill:#999999;fill-opacity:1;fill-rule:nonzero;stroke:none"
             d="m 0,0 c 0,-11.046 -8.954,-20 -20,-20 -11.046,0 -20,8.954 -20,20 0,11.046 8.954,20 20,20 C -8.954,20 0,11.046 0,0" /></g></g></g><g
       id="g148"><g
         clip-path="url(#clipPath152)"
         id="g150"><g
           id="g156"><g
             id="g158"><path
               id="path166"
               style="fill:url(#linearGradient160);stroke:none"
               d="m 114,158 c 0,-7.732 6.268,-14 14,-14 l 0,0 c 7.732,0 14,6.268 14,14 l 0,0 c 0,7.732 -6.268,14 -14,14 l 0,0 c -7.732,0 -14,-6.268 -14,-14" /></g></g></g></g></g></svg>

<?xml version="1.0" encoding="UTF-8" standalone="no"?>
<svg
   xmlns:dc="http://purl.org/dc/elements/1.1/"
   xmlns:cc="http://creativecommons.org/ns#"
   xmlns:rdf="http://www.w3.org/1999/02/22-rdf-syntax-ns#"
   xmlns:svg="http://www.w3.org/2000/svg"
   xmlns="http://www.w3.org/2000/svg"
   viewBox="0 0 138.66772 309.33331"
   height="309.33331"
   width="138.66772"
   xml:space="preserve"
   id="svg2"
   version="1.1"><metadata
     id="metadata8"><rdf:RDF><cc:Work
         rdf:about=""><dc:format>image/svg+xml</dc:format><dc:type
           rdf:resource="http://purl.org/dc/dcmitype/StillImage" /></cc:Work></rdf:RDF></metadata><defs
     id="defs6"><clipPath
       id="clipPath18"
       clipPathUnits="userSpaceOnUse"><path
         id="path16"
         d="M 171.885,237.342 163.021,244 H 128 92.979 L 84.115,237.342 80,184.687 90.763,15.825 98.545,12 H 128 157.455 l 7.782,3.825 L 176,184.687 Z" /></clipPath><linearGradient
       id="linearGradient28"
       spreadMethod="pad"
       gradientTransform="matrix(151.31987,-151.31987,-151.31987,-151.31987,52.340065,205.56728)"
       gradientUnits="userSpaceOnUse"
       y2="0"
       x2="1"
       y1="0"
       x1="0"><stop
         id="stop24"
         offset="0"
         style="stop-opacity:1;stop-color:#e6e7e8" /><stop
         id="stop26"
         offset="1"
         style="stop-opacity:1;stop-color:#d1d3d4" /></linearGradient><clipPath
       id="clipPath62"
       clipPathUnits="userSpaceOnUse"><path
         id="path60"
         d="M 158,128 H 98 v 60 h 60 z" /></clipPath><linearGradient
       id="linearGradient72"
       spreadMethod="pad"
       gradientTransform="matrix(59.999973,-59.999973,-59.999973,-59.999973,98.000015,187.99997)"
       gradientUnits="userSpaceOnUse"
       y2="0"
       x2="1"
       y1="0"
       x1="0"><stop
         id="stop68"
         offset="0"
         style="stop-opacity:1;stop-color:#e6e7e8" /><stop
         id="stop70"
         offset="1"
         style="stop-opacity:1;stop-color:#d1d3d4" /></linearGradient><clipPath
       id="clipPath82"
       clipPathUnits="userSpaceOnUse"><path
         id="path80"
         d="m 128,158 30,30 H 98 Z" /></clipPath><linearGradient
       id="linearGradient92"
       spreadMethod="pad"
       gradientTransform="matrix(-29.999989,29.999989,29.999989,29.999989,143,172.99997)"
       gradientUnits="userSpaceOnUse"
       y2="0"
       x2="1"
       y1="0"
       x1="0"><stop
         id="stop88"
         offset="0"
         style="stop-opacity:1;stop-color:#e6e7e8" /><stop
         id="stop90"
         offset="1"
         style="stop-opacity:1;stop-color:#d1d3d4" /></linearGradient><clipPath
       id="clipPath102"
       clipPathUnits="userSpaceOnUse"><path
         id="path100"
         d="M 128,158 98,128 h 60 z" /></clipPath><linearGradient
       id="linearGradient112"
       spreadMethod="pad"
       gradientTransform="matrix(-29.999989,29.999989,29.999989,29.999989,143,113.00001)"
       gradientUnits="userSpaceOnUse"
       y2="0"
       x2="1"
       y1="0"
       x1="0"><stop
         id="stop108"
         offset="0"
         style="stop-opacity:1;stop-color:#e6e7e8" /><stop
         id="stop110"
         offset="1"
         style="stop-opacity:1;stop-color:#d1d3d4" /></linearGradient><clipPath
       id="clipPath122"
       clipPathUnits="userSpaceOnUse"><path
         id="path120"
         d="m 158,188 h -6.324 L 127.984,164.28 104.026,188 H 98 v -6.26 L 121.712,158 98,134.26 V 128 h 6.026 L 127.984,151.72 151.676,128 H 158 v 6.563 L 134.328,158 158,181.437 Z" /></clipPath><linearGradient
       id="linearGradient132"
       spreadMethod="pad"
       gradientTransform="matrix(-59.999954,59.999954,59.999954,59.999954,157.99994,128.00003)"
       gradientUnits="userSpaceOnUse"
       y2="0"
       x2="1"
       y1="0"
       x1="0"><stop
         id="stop128"
         offset="0"
         style="stop-opacity:1;stop-color:#e6e7e8" /><stop
         id="stop130"
         offset="1"
         style="stop-opacity:1;stop-color:#d1d3d4" /></linearGradient><clipPath
       id="clipPath142"
       clipPathUnits="userSpaceOnUse"><path
         id="path140"
         d="M 0,256 H 256 V 0 H 0 Z" /></clipPath><clipPath
       id="clipPath154"
       clipPathUnits="userSpaceOnUse"><path
         id="path152"
         d="m 114,158 c 0,-7.732 6.268,-14 14,-14 v 0 c 7.732,0 14,6.268 14,14 v 0 c 0,7.732 -6.268,14 -14,14 v 0 c -7.732,0 -14,-6.268 -14,-14" /></clipPath><linearGradient
       id="linearGradient164"
       spreadMethod="pad"
       gradientTransform="matrix(19.79899,-19.79899,-19.79899,-19.79899,118.1005,167.89949)"
       gradientUnits="userSpaceOnUse"
       y2="0"
       x2="1"
       y1="0"
       x1="0"><stop
         id="stop160"
         offset="0"
         style="stop-opacity:1;stop-color:#e6e7e8" /><stop
         id="stop162"
         offset="1"
         style="stop-opacity:1;stop-color:#d1d3d4" /></linearGradient></defs><g
     transform="matrix(1.3333333,0,0,-1.3333333,-101.3328,325.33333)"
     id="g10"><g
       id="g12"><g
         clip-path="url(#clipPath18)"
         id="g14"><g
           id="g20"><g
             id="g22"><path
               id="path30"
               style="fill:url(#linearGradient28);stroke:none"
               d="M 171.885,237.342 163.021,244 H 128 92.979 L 84.115,237.342 80,184.687 90.763,15.825 98.545,12 H 128 157.455 l 7.782,3.825 L 176,184.687 Z" /></g></g></g></g><path
       id="path32"
       style="fill:#ffffff;fill-opacity:1;fill-rule:nonzero;stroke:none"
       d="M 158,12 H 98 v 116 h 60 z" /><g
       transform="translate(79.5556,233.6393)"
       id="g34"><path
         id="path36"
         style="fill:#999999;fill-opacity:1;fill-rule:nonzero;stroke:none"
         d="m 0,0 4.593,2.361 3.851,-3.935 -2.222,-37.141 -5.481,-6.924 -4.297,2.832 z" /></g><g
       transform="translate(176.4444,233.6393)"
       id="g38"><path
         id="path40"
         style="fill:#999999;fill-opacity:1;fill-rule:nonzero;stroke:none"
         d="m 0,0 -4.593,2.361 -3.851,-3.935 2.222,-37.141 5.481,-6.924 4.297,2.832 z" /></g><path
       id="path42"
       style="fill:#999999;fill-opacity:1;fill-rule:nonzero;stroke:none"
       d="M 158,240 H 98 v 4 h 60 z" /><path
       id="path44"
       style="fill:#999999;fill-opacity:1;fill-rule:nonzero;stroke:none"
       d="M 158,232 H 98 v 4 h 60 z" /><path
       id="path46"
       style="fill:#999999;fill-opacity:1;fill-rule:nonzero;stroke:none"
       d="M 158,224 H 98 v 4 h 60 z" /><path
       id="path48"
       style="fill:#999999;fill-opacity:1;fill-rule:nonzero;stroke:none"
       d="M 158,216 H 98 v 4 h 60 z" /><path
       id="path50"
       style="fill:#999999;fill-opacity:1;fill-rule:nonzero;stroke:none"
       d="M 158,208 H 98 v 4 h 60 z" /><path
       id="path52"
       style="fill:#999999;fill-opacity:1;fill-rule:nonzero;stroke:none"
       d="M 158,200 H 98 v 4 h 60 z" /><path
       id="path54"
       style="fill:#999999;fill-opacity:1;fill-rule:nonzero;stroke:none"
       d="M 158,192 H 98 v 4 h 60 z" /><g
       id="g56"><g
         clip-path="url(#clipPath62)"
         id="g58"><g
           id="g64"><g
             id="g66"><path
               id="path74"
               style="fill:url(#linearGradient72);stroke:none"
               d="M 158,128 H 98 v 60 h 60 z" /></g></g></g></g><g
       id="g76"><g
         clip-path="url(#clipPath82)"
         id="g78"><g
           id="g84"><g
             id="g86"><path
               id="path94"
               style="fill:url(#linearGradient92);stroke:none"
               d="m 128,158 30,30 H 98 Z" /></g></g></g></g><g
       id="g96"><g
         clip-path="url(#clipPath102)"
         id="g98"><g
           id="g104"><g
             id="g106"><path
               id="path114"
               style="fill:url(#linearGradient112);stroke:none"
               d="M 128,158 98,128 h 60 z" /></g></g></g></g><g
       id="g116"><g
         clip-path="url(#clipPath122)"
         id="g118"><g
           id="g124"><g
             id="g126"><path
               id="path134"
               style="fill:url(#linearGradient132);stroke:none"
               d="m 158,188 h -6.324 L 127.984,164.28 104.026,188 H 98 v -6.26 L 121.712,158 98,134.26 V 128 h 6.026 L 127.984,151.72 151.676,128 H 158 v 6.563 L 134.328,158 158,181.437 Z" /></g></g></g></g><g
       id="g136"><g
         clip-path="url(#clipPath142)"
         id="g138"><g
           transform="translate(148,158)"
           id="g144"><path
             id="path146"
             style="fill:#999999;fill-opacity:1;fill-rule:nonzero;stroke:none"
             d="m 0,0 c 0,-11.046 -8.954,-20 -20,-20 -11.046,0 -20,8.954 -20,20 0,11.046 8.954,20 20,20 C -8.954,20 0,11.046 0,0" /></g></g></g><g
       id="g148"><g
         clip-path="url(#clipPath154)"
         id="g150"><g
           id="g156"><g
             id="g158"><path
               id="path166"
               style="fill:url(#linearGradient164);stroke:none"
               d="m 114,158 c 0,-7.732 6.268,-14 14,-14 v 0 c 7.732,0 14,6.268 14,14 v 0 c 0,7.732 -6.268,14 -14,14 v 0 c -7.732,0 -14,-6.268 -14,-14" /></g></g></g></g></g></svg>
